X:43
T:Ms. Thornton's
R:reel
Z:Transcribed by Dave Marshall
M:C|
L:1/8
K:G
|: G2Bd gdBd | c2AB cedc | B2AF GBdg | ecAF GFEF |
G2Bd gdBd | c2AB cedc | B2AF GBdg |1 ecAF GDEF :|2 egfa g2ga
|: bgag bgag | egdg egdg | bgag bgag | eaag a2ga |
bgag bgag | egdg egdg | bgaf gfed |1 egfa g2ga :|2 egfa gedB ||
